Catalina-dark/actions/22/bitmap-trace.svg

<?xml version="1.0" encoding="UTF-8" standalone="no"?>
<svg
   xmlns:dc="http://purl.org/dc/elements/1.1/"
   xmlns:cc="http://creativecommons.org/ns#"
   xmlns:rdf="http://www.w3.org/1999/02/22-rdf-syntax-ns#"
   xmlns:svg="http://www.w3.org/2000/svg"
   xmlns="http://www.w3.org/2000/svg"
   xmlns:sodipodi="http://sodipodi.sourceforge.net/DTD/sodipodi-0.dtd"
   xmlns:inkscape="http://www.inkscape.org/namespaces/inkscape"
   viewBox="0 0 22 22"
   id="svg2"
   version="1.1"
   inkscape:version="0.91 r13725"
   sodipodi:docname="bitmap-trace.svg">
  <metadata
     id="metadata10">
    <rdf:RDF>
      <cc:Work
         rdf:about="">
        <dc:format>image/svg+xml</dc:format>
        <dc:type
           rdf:resource="http://purl.org/dc/dcmitype/StillImage" />
      </cc:Work>
    </rdf:RDF>
  </metadata>
  <sodipodi:namedview
     pagecolor="#ffffff"
     bordercolor="#666666"
     borderopacity="1"
     objecttolerance="10"
     gridtolerance="10"
     guidetolerance="10"
     inkscape:pageopacity="0"
     inkscape:pageshadow="2"
     inkscape:window-width="640"
     inkscape:window-height="480"
     id="namedview8"
     showgrid="false"
     inkscape:zoom="28.954545"
     inkscape:cx="4.8524333"
     inkscape:cy="11"
     inkscape:current-layer="svg2" />
  <defs
     id="defs3051">
    <style
       type="text/css"
       id="current-color-scheme">
      .ColorScheme-Text {
        color:#f2f2f2
      }
      </style>
  </defs>
  <path
     style="color:#f2f2f2;fill:currentColor;fill-opacity:1;stroke:none"
     class="ColorScheme-Text"
     d="M 3.7622778,3.9904695 C 3.3412886,3.9904695 3,4.3321615 3,4.7528223 L 3,18.237638 C 3,18.658674 3.3415794,19 3.7622778,19 L 18.237713,19 C 18.658721,19 19,18.658299 19,18.237638 L 19,4.7528223 C 19,4.3317863 18.658421,3.9904695 18.237713,3.9904695 Z M 13.346416,6.685093 c 0.965132,0 1.747917,0.7833474 1.747917,1.7492013 0,0.9658352 -0.782785,1.7491917 -1.747917,1.7491917 -0.965431,0 -1.747906,-0.7833565 -1.747906,-1.7491917 0,-0.9658539 0.782475,-1.7492013 1.747906,-1.7492013 z m -7.7199076,10.64111 c -0.4827159,0 -0.6977087,-0.349722 -0.4800893,-0.780899 l 2.9997016,-5.9458 c 0.2173099,-0.431177 0.6315729,-0.469667 0.9249154,-0.08602 l 3.0283139,5.974441 c 0,0 0.495614,0.838319 -0.480455,0.838319 z"
     id="path6"
     inkscape:connector-curvature="0" />
</svg>

<svg version="1.1" viewBox="0 0 22 22" xmlns="http://www.w3.org/2000/svg">
<defs>
<style id="current-color-scheme" type="text/css">.ColorScheme-Text {
        color:#dedede
      }</style>
</defs>
<path class="ColorScheme-Text" d="m3.7623 3.9905c-0.42099 0-0.76228 0.34169-0.76228 0.76235v13.485c0 0.42104 0.34158 0.76236 0.76228 0.76236h14.475c0.42101 0 0.76229-0.3417 0.76229-0.76236v-13.485c0-0.42104-0.34158-0.76235-0.76229-0.76235zm9.5841 2.6946c0.96513 0 1.7479 0.78335 1.7479 1.7492 0 0.96584-0.78278 1.7492-1.7479 1.7492-0.96543 0-1.7479-0.78336-1.7479-1.7492 0-0.96585 0.78248-1.7492 1.7479-1.7492zm-7.7199 10.641c-0.48272 0-0.69771-0.34972-0.48009-0.7809l2.9997-5.9458c0.21731-0.43118 0.63157-0.46967 0.92492-0.08602l3.0283 5.9744s0.49561 0.83832-0.48046 0.83832z" color="#dedede" fill="currentColor"/>
</svg>
